X:1
T:Fürwahr
T:Sammlung MUSICA SACRA, 1856 - No. 33
T:FÜRWAHR Chor aus der Passionskantate "Ein Lämmlein geht"
T: Carl Heinrich GRAUN
T:© Edition Monika Feinen, Creative Commons Attribution-NonCommercial-ShareAlike 4.0
T:© Edition Monika Feinen, Creative Commons Attribution-NonCommercial-ShareAlike 4.0
T:© Edition Monika Feinen, Creative Commons Attribution-NonCommercial-ShareAlike 4.0
T:© Edition Monika Feinen, Creative Commons Attribution-NonCommercial-ShareAlike 4.0
T:© Edition Monika Feinen, Creative Commons Attribution-NonCommercial-ShareAlike 4.0
C:Carl Heinrich Graun
Z:© Edition Monika Feinen, Creative Commons Attribution-NonCommercial-ShareAlike 4.0
%%score [ 1 2 3 4 ]
L:1/8
Q:1/4=50
M:4/4
K:Bb
V:1 treble nm="CANTO."
V:2 treble nm="ALTO."
V:3 treble-8 nm="TENORE."
V:4 bass nm="BASSO."
V:1
"^Grave." z2!f! G2 B4 | z2 G2 ^c4 | z2 d2 c2 c c |!<(! B8-!<)! | B2 A4 G^F | G8 | !fermata!^F8 | %7
w: Für- wahr,|für- wahr!|er trug uns- re|Krank-|||heit|
 z8 | z8 | z8 | z8 | z2 d2 ^c2 d =e | f=e f d e2 _e2 | d4- dcBA | G6 ^F2 | G4 z2 c2 | %16
w: ||||und lud auf sich|un- * se- re Schmer- *|||zen, und|
 =B2 c d ed e e | e2 dc B4- | B2 AG A4 | !fermata!B8 | z2!f! B2 d4 | z2 B2 =e4 | z2!p! f2 _e2 e e | %23
w: lud auf sich un- * se- re|Schmer- * * *||zen.|Für- wahr,|für- wahr!|Er trug uns- re|
 d4 _d4- | d2 c4 BA | B8 | !fermata!A8 | z8 | z8 | z8 | z2!f! d2 ^c2 d =e | f=e f f e2 _e2 | %32
w: Krank- *|||heit||||und lud auf sich|un- * se- re Schmer- *|
 d4 z4 | z2!f! G2 ^F2 G A | BA B B B4 | A4 G4 |"^dimin." _A4 c4- | c4 B4 | =A8 |!p! G8- | %40
w: zen,|und lud auf sich|un- * se- re Schmer-|||||zen.|
 !fermata!G8 |] %41
w: _|
V:2
 z2!f! D2 G4 | z2 B2 A4 | z2 A2 A2 A A | A4 G4- | G2 ^F2 D4 | =E8 | !fermata!D8 | z8 | z8 | z8 | %10
w: Für- wahr,|für- wahr!|er trug uns- re|Krank- *|||heit||||
 z2 G2 ^F2 G A | BA B G AG=F=E | D2 A2- A=E A2- | A2 G2 A2 G^F | G4 D4 | z4 z2 E2 | D2 E F G2 G G | %17
w: und lud auf sich|un- * se- re Schmer- * * *|||* zen,|und|lud auf sich un- se- re|
 A2 F2 F2 F F | G4 F4 | !fermata!F8 | z2!f! D2 F4 | z2 F2 G4 | z2!p! c2 c2 c c | c4 B4- | %24
w: Schmer- zen, un- se- re|Schmer- *|zen.|Für- wahr,|für- wahr!|Er trug uns- re|Krank- *|
 B2 A2 F4 | G8 | !fermata!F8 | z8 | z8 | z2!f! G2 ^F2 G A | BA B B B2 AG | FG A2- A=E A2- | %32
w: ||heit|||und lud auf sich|un- * se- re Schmer- * *||
 A2 D4 =E^F | G^F G2 D4 | z2 G2 G2 G G | D4 D2 D2 | E4 _A2 G2 | ^F4 G4- | G2 ^F=E F4 | %39
w: |* * * zen,|und lud auf sich|un- se- re|Schmer- * *|||
 G2!p! F F E4 | !fermata!D8 |] %41
w: zen, uns- re Schmer-|zen.|
V:3
 z2!f! B2 d4 | z2 d2 =e4 | z2 d2 _e2 e e |!<(! d4 ^c4!<)! | d3 =c B3 A | B8 | !fermata!A8 | z8 | %8
w: Für- wahr,|für- wahr!|er trug uns- re|Krank- *|||heit||
 z2 d2 ^c2 d =e | f=e f d e2 _e2 | d4- dcBA | G3 d =e2 d^c | d6 =c2- | c2 B2 A2 Bc | d2 d2 z2 c2 | %15
w: und lud auf sich|un- * se- re Schmer- *|||||* zen, und|
 =B2 c d ed c c | d2 G2 c4- | c3 F B3 d | c6 de | !fermata!d8 | z2!f! B2 B4 | z2 d2 c4 | %22
w: lud auf sich un- * se- re|Schmer- * *|||zen.|Für- wahr,|für- wahr!|
 z2!p! f2 f2 f f | f4 =e4 | f3 _e d3 c | _d8 | !fermata!c8 | z8 | z2!f! c2 =B2 c d | ed e e e2 dc | %30
w: Er trug uns- re|Krank- *|||heit||und lud auf sich|un- * se- re Schmer- * *|
 Bcdg =e4- | e2 d4 c2- | c2 B2 A4 | G2 z2 z4 | z2 d2 ^c2 c c | =c4 B2 B2 | c4 e4 | d4 =e4 | %38
w: ||||und lud auf sich|un- se- re|Schmer- *||
 =d6 c2 | =B2!p! d d d2 c2- | c2 =BA !fermata!B4 |] %41
w: |zen, uns- re Schmer- *|* * * zen.|
V:4
 z2!f! G,2 G,4 | z2 G,2 G,4 | z2 ^F,2 F,2 F, F, | G,4 E,4 | D,8 | D,8 | !fermata!D,8 | %7
w: Für- wahr,|für- wahr!|er trug uns- re|Krank- *|||heit|
 z2 G,2 ^F,2 G, A, | B,A, B, G, A,G,=F,=E, | D,2 D4 C2- | C2 B,2 A,2 G,^F, | G,3 B, A,4 | %12
w: und lud auf sich|un- * se- re Schmer- * * *||||
 D,2 z2 z4 | z2 G,2 ^F,2 G, A, | B,A, B, G, A,4 | G,2 G, =F, E,F, G,2 | G,2 z2 z2 C2 | %17
w: zen,|und lud auf sich|un- * se- re Schmer-|zen, uns- re Schmer- * *|zen, und|
 A,2 B, C DC D B, | =E,4 F,4 | !fermata!B,,8 | z2!f! B,,2 B,4 | z2 B,2 B,4 | z2!p! A,2 A,2 A, A, | %23
w: lud auf sich un- * se- re||zen.|Für- wahr,|für- wahr!|Er trug uns- re|
 B,4 G,4 | F,8 | =E,8 | !fermata!F,8 | z2!f! F,2 =E,2 F, G, | _A,G, A, A, A,2 G,F, | E,F,G,C =A,4 | %30
w: Krank- *|||heit|und lud auf sich|un- * se- re Schmer- * *||
 G,4 A,4 | D,4 z4 | z2 G,2 ^F,2 G, A, | B,A, B, B, A,2 G,^F, | G,2 D,2 =E,4 | ^F,4 G,4 | C,8 | %37
w: |zen,|und lud auf sich|un- * se- re Schmer- * *||||
 D,4 ^C,4 | D,8 |!p! G,,8- | !fermata!G,,8 |] %41
w: ||zen.|_|

